X: 1134
T: Dorin's Slide
M: 12/8
L: 1/8
R: slide
K: D Major
|: A3 AGA B2 A G2 B | AGE G2 E D2 E G3 |
A3 AGA B2 A G2 B | AGE G2 E D3 D3 :|
|: d2 A AGA B2 A G2 B | AGE G2 E D2 E G3 |
d2 A AGA B2 A G2 B | AGE G2 E D3 D3 :|
